X:528
T:B528-  With a Fading (Rince Fada?)
S:(2nd/2)
Q:1/4=120
L:1/4
M:6/4
K:D mixolydian
B|BdBd2G|GGDG2B|ccdeed|\
efgf2g|g3/2f/ed2B|ABGA2G|GGGG2D/D/|\
GGAB3/2A/G|B(d2d2)|]

